X: 74
T:Dances at Kinvara, The
M:C|
L:1/8
C:Ed Reavy
R:barndance
N:also on the "Moving Cloud" C
K:G
(3DEF|G2 B2 BdBG|c2 D2 F3  G|FGAB cdef|gfaf gd^cd|B2 G2 DGcB|A2 D2 F3  G
|FGAB cAFA|1 G2 B2 G2 :|2 G2 B2 GFGA|:B2 dB c2 ec |d2 b2 b3  d|agfe dcBA
|Gg (3agf g2 (3def|g2 dB e2 cA|d2 BG c2 AG|FGAB cAFA|1G2 B2 GFGA :|G2 B2
 G2 ||
